PratyushDoodlesApp/static/images/ic_orders.svg

<svg stroke-miterlimit="10" style="fill-rule:nonzero;clip-rule:evenodd;stroke-linecap:round;stroke-linejoin:round" viewBox="690.773 170.1 85.05 85.05" xml:space="preserve" xmlns="http://www.w3.org/2000/svg" xmlns:vectornator="http://vectornator.io"><clipPath id="a"><path d="M690.773 170.1h85.05v85.05h-85.05z"/></clipPath><g vectornator:layerName="Layer"><g vectornator:layerName="Group 25" clip-path="url(#a)"><g vectornator:layerName="Group 21"><g vectornator:layerName="Group 1"><path d="M690.773 170.1h85.05v85.05h-85.05V170.1Z" fill="#fff" vectornator:layerName="Rectangle 1"/><path d="M740.602 200.191c4.08-2.802 7.057-4.356 8.51-5.405 9.867-7.125 27.188-1.717 22.358 12.588-2.58 7.642-8.774 7.591-14.897 7.54-4.698-.039-9.355-.078-12.302 3.361-6.938 8.095 4.423 15.465 2.203 23.203-3.395 11.835-8.824-4.735-12.883-5.497-3.878-.727-5.899 8.136-10.165 6.323-4.4-1.87-.398-11.16-7.099-11.6-4.42-.291-16.84 10.642-21.097 3.664-1.383-2.267-.897-6.245-.648-8.747 1.488-14.974 17.903-2.097 23.016-11.241 4.38-7.834-11.161-30.609-4.008-34.391 2.946-1.557 11.276.169 13.961 15.008.424 2.346.72 4.917 2.908 6.419 1.52 1.044 3.746 3.169 10.143-1.225Z" fill="#f1f1f1" stroke="#f1f1f1" stroke-width="2" vectornator:layerName="Curve 1"/></g></g><path d="M721.34 206.996h15.621s8.358 10.941 2.778 19.365c-.194.293-19.644.253-19.911-.05-5.55-6.292 1.512-19.315 1.512-19.315Z" fill="#0d262c" stroke="#0d262c" stroke-linecap="butt" stroke-width="5" vectornator:layerName="Rectangle 8"/><path d="M722.128 206.144c1.846-11.248 2.654-12.015 6.647-12.032 5.588-.023 5.791-.075 8.281 12.884" fill="none" stroke="#94481a" stroke-width="2" vectornator:layerName="Curve 8"/><g vectornator:layerName="Group 22"><path d="M721.34 206.996h15.621s8.358 10.941 2.778 19.365c-.194.293-19.644.253-19.911-.05-5.55-6.292 1.512-19.315 1.512-19.315Z" fill="#0d262c" stroke="#0d262c" stroke-linecap="butt" stroke-width="5" vectornator:layerName="Rectangle 8"/><path d="M722.128 206.144c1.846-11.248 2.654-12.015 6.647-12.032 5.588-.023 5.791-.075 8.281 12.884" fill="none" stroke="#94481a" stroke-width="2" vectornator:layerName="Curve 8"/></g><g vectornator:layerName="Group 23"><path d="M735.523 214.765h9.551s5.11 6.596 1.698 11.675c-.119.177-12.01.153-12.173-.03-3.393-3.793.924-11.645.924-11.645Z" fill="#2e4e55" stroke="#2e4e55" stroke-linecap="butt" stroke-width="5" vectornator:layerName="Rectangle 8"/><path d="M736.005 214.251c1.129-6.781 1.623-7.244 4.064-7.254 3.416-.014 3.541-.045 5.063 7.768" fill="none" stroke="#94481a" vectornator:layerName="Curve 8"/></g></g></g></svg>

<?xml version="1.0" encoding="UTF-8" standalone="no"?>
<!DOCTYPE svg PUBLIC "-//W3C//DTD SVG 1.1//EN" "http://www.w3.org/Graphics/SVG/1.1/DTD/svg11.dtd">
<!-- Created with Vectornator (http://vectornator.io/) -->
<svg height="100%" stroke-miterlimit="10" style="fill-rule:nonzero;clip-rule:evenodd;stroke-linecap:round;stroke-linejoin:round;" version="1.1" viewBox="690.773 170.1 85.05 85.05" width="100%" xml:space="preserve" xmlns="http://www.w3.org/2000/svg" xmlns:vectornator="http://vectornator.io" xmlns:xlink="http://www.w3.org/1999/xlink">
<defs/>
<clipPath id="ArtboardFrame">
<rect height="85.05" width="85.05" x="690.773" y="170.1"/>
</clipPath>
<g clip-path="url(#ArtboardFrame)" id="Layer" vectornator:layerName="Layer">
<g opacity="1" vectornator:layerName="Group 25">
<g opacity="1" vectornator:layerName="Group 21">
<g opacity="1" vectornator:layerName="Group 1">
<path d="M690.773 170.1L775.823 170.1L775.823 255.15L690.773 255.15L690.773 170.1Z" fill="#ffffff" fill-rule="nonzero" opacity="1" stroke="none" vectornator:layerName="Rectangle 1"/>
<path d="M740.602 200.191C744.682 197.389 747.659 195.835 749.112 194.786C758.979 187.661 776.3 193.069 771.47 207.374C768.89 215.016 762.696 214.965 756.573 214.914C751.875 214.875 747.218 214.836 744.271 218.275C737.333 226.37 748.694 233.74 746.474 241.478C743.079 253.313 737.65 236.743 733.591 235.981C729.713 235.254 727.692 244.117 723.426 242.304C719.026 240.434 723.028 231.144 716.327 230.704C711.907 230.413 699.487 241.346 695.23 234.368C693.847 232.101 694.333 228.123 694.582 225.621C696.07 210.647 712.485 223.524 717.598 214.38C721.978 206.546 706.437 183.771 713.59 179.989C716.536 178.432 724.866 180.158 727.551 194.997C727.975 197.343 728.271 199.914 730.459 201.416C731.979 202.46 734.205 204.585 740.602 200.191Z" fill="#f1f1f1" fill-rule="nonzero" opacity="1" stroke="#f1f1f1" stroke-linecap="round" stroke-linejoin="round" stroke-width="2" vectornator:layerName="Curve 1"/>
</g>
</g>
<path d="M721.34 206.996L736.961 206.996C736.961 206.996 745.319 217.937 739.739 226.361C739.545 226.654 720.095 226.614 719.828 226.311C714.278 220.019 721.34 206.996 721.34 206.996Z" fill="#0d262c" fill-rule="nonzero" opacity="1" stroke="#0d262c" stroke-linecap="butt" stroke-linejoin="round" stroke-width="5" vectornator:layerName="Rectangle 8"/>
<path d="M722.128 206.144C723.974 194.896 724.782 194.129 728.775 194.112C734.363 194.089 734.566 194.037 737.056 206.996" fill="none" opacity="1" stroke="#94481a" stroke-linecap="round" stroke-linejoin="round" stroke-width="2" vectornator:layerName="Curve 8"/>
<g opacity="1" vectornator:layerName="Group 22">
<path d="M721.34 206.996L736.961 206.996C736.961 206.996 745.319 217.937 739.739 226.361C739.545 226.654 720.095 226.614 719.828 226.311C714.278 220.019 721.34 206.996 721.34 206.996Z" fill="#0d262c" fill-rule="nonzero" opacity="1" stroke="#0d262c" stroke-linecap="butt" stroke-linejoin="round" stroke-width="5" vectornator:layerName="Rectangle 8"/>
<path d="M722.128 206.144C723.974 194.896 724.782 194.129 728.775 194.112C734.363 194.089 734.566 194.037 737.056 206.996" fill="none" opacity="1" stroke="#94481a" stroke-linecap="round" stroke-linejoin="round" stroke-width="2" vectornator:layerName="Curve 8"/>
</g>
<g opacity="1" vectornator:layerName="Group 23">
<path d="M735.523 214.765L745.074 214.765C745.074 214.765 750.184 221.361 746.772 226.44C746.653 226.617 734.762 226.593 734.599 226.41C731.206 222.617 735.523 214.765 735.523 214.765Z" fill="#2e4e55" fill-rule="nonzero" opacity="1" stroke="#2e4e55" stroke-linecap="butt" stroke-linejoin="round" stroke-width="5" vectornator:layerName="Rectangle 8"/>
<path d="M736.005 214.251C737.134 207.47 737.628 207.007 740.069 206.997C743.485 206.983 743.61 206.952 745.132 214.765" fill="none" opacity="1" stroke="#94481a" stroke-linecap="round" stroke-linejoin="round" stroke-width="1" vectornator:layerName="Curve 8"/>
</g>
</g>
</g>
</svg>
